assets/Fondue/Flat/fondue_flat.svg

<svg width="32" height="32" viewBox="0 0 32 32" fill="none" xmlns="http://www.w3.org/2000/svg">
<path d="M15.47 26.3499L14.42 24.5599C14.23 24.2399 13.77 24.2399 13.58 24.5599L12.52 26.3599C12.51 26.3799 12.49 26.4099 12.48 26.4299L12.47 26.4399C12.32 26.7099 12.25 27.0099 12.26 27.3399C12.3 28.2499 13.06 28.9899 13.97 29.0099C14.94 29.0199 15.73 28.2399 15.73 27.2799C15.73 26.9299 15.64 26.6099 15.47 26.3499Z" fill="#FF6723"/>
<path d="M14 28.32C14.5247 28.32 14.95 27.8947 14.95 27.37C14.95 26.8454 14.5247 26.42 14 26.42C13.4754 26.42 13.05 26.8454 13.05 27.37C13.05 27.8947 13.4754 28.32 14 28.32Z" fill="#FFB02E"/>
<path d="M21 21.9701V20.4301H7V21.9701C7 23.0901 7.91 24.0001 9.03 24.0001H9.5L7.83 29.0101C7.67 29.5001 8.03 30.0001 8.54 30.0001H19.46C19.97 30.0001 20.33 29.5001 20.17 29.0101L18.5 24.0001H18.47C19.59 24.0001 21 23.0901 21 21.9701ZM17.81 27.9301H10.19L11.5 24.0001H16.5L17.81 27.9301Z" fill="#636363"/>
<path d="M8.5 8H19.5C21.43 8 23 9.57 23 11.5V14.7132L26.02 14.28C27.07 14.13 28 14.94 28 16C28 17.06 27.07 17.87 26.02 17.72L23 17.2869V18.5C23 20.43 21.43 22 19.5 22H8.5C6.57 22 5 20.43 5 18.5V11.5C5 9.57 6.57 8 8.5 8Z" fill="#F8312F"/>
<path d="M8.5 9H19.5C20.88 9 22 10.12 22 11.5C22 11.5924 21.995 11.6836 21.9852 11.7734H6.0148C6.00502 11.6836 6 11.5924 6 11.5C6 10.12 7.12 9 8.5 9Z" fill="#CA0B4A"/>
<path d="M22 11.76C21.8898 10.76 21.0382 9.98999 20.0063 9.98999H7.99374C6.9618 9.98999 6.11021 10.77 6 11.76C6.12023 13.02 7.19224 14 8.48466 14H19.5053C20.7977 14 21.8698 13.02 22 11.76Z" fill="#FFF478"/>
<path d="M19.9074 11.9999L21.74 5.17993L20.77 4.92993L18.8758 11.9999H19.9074Z" fill="#D3D3D3"/>
<path d="M16.5 11.9999V4.98993H17.5V11.9999H16.5Z" fill="#D3D3D3"/>
<path d="M16 5.99C16 6.54 16.45 6.99 17 6.99C17.55 6.99 18 6.54 18 5.99V3C18 2.45 17.55 2 17 2C16.45 2 16 2.45 16 3V5.99Z" fill="#A56953"/>
<path d="M20.03 5.76998C19.89 6.29998 20.21 6.84998 20.74 6.98998C21.27 7.12998 21.82 6.80998 21.96 6.27998L22.78 3.25998C22.92 2.72998 22.6 2.17998 22.07 2.03998C21.54 1.89998 20.99 2.21998 20.85 2.74998L20.03 5.76998Z" fill="#A56953"/>
<path d="M15.3901 12.23C15.3901 11.42 16.0501 10.77 16.8501 10.77C17.6501 10.77 18.3001 11.42 18.3001 12.23H15.3901Z" fill="#FFB02E"/>
<path d="M9.59009 12.96C9.59009 11.89 10.4601 11.02 11.5301 11.02C12.6101 11.02 13.4801 11.89 13.4801 12.96H9.59009Z" fill="#FFB02E"/>
</svg>

<svg xmlns="http://www.w3.org/2000/svg" width="32" height="32" fill="none"><path fill="#FF6723" d="m15.47 26.35-1.05-1.79a.487.487 0 0 0-.84 0l-1.06 1.8c-.01.02-.03.05-.04.07l-.01.01c-.15.27-.22.57-.21.9.04.91.8 1.65 1.71 1.67.97.01 1.76-.77 1.76-1.73 0-.35-.09-.67-.26-.93Z"/><path fill="#FFB02E" d="M14 28.32a.95.95 0 1 0 0-1.9.95.95 0 0 0 0 1.9Z"/><path fill="#636363" d="M21 21.97v-1.54H7v1.54C7 23.09 7.91 24 9.03 24h.47l-1.67 5.01c-.16.49.2.99.71.99h10.92c.51 0 .87-.5.71-.99L18.5 24h-.03c1.12 0 2.53-.91 2.53-2.03Zm-3.19 5.96h-7.62L11.5 24h5l1.31 3.93Z"/><path fill="#F8312F" d="M8.5 8h11c1.93 0 3.5 1.57 3.5 3.5v3.213l3.02-.433c1.05-.15 1.98.66 1.98 1.72s-.93 1.87-1.98 1.72L23 17.287V18.5c0 1.93-1.57 3.5-3.5 3.5h-11C6.57 22 5 20.43 5 18.5v-7C5 9.57 6.57 8 8.5 8Z"/><path fill="#CA0B4A" d="M8.5 9h11a2.5 2.5 0 0 1 2.485 2.773H6.015A2.5 2.5 0 0 1 8.5 9Z"/><path fill="#FFF478" d="M22 11.76c-.11-1-.962-1.77-1.994-1.77H7.994c-1.032 0-1.884.78-1.994 1.77A2.49 2.49 0 0 0 8.485 14h11.02c1.293 0 2.365-.98 2.495-2.24Z"/><path fill="#D3D3D3" d="m19.907 12 1.833-6.82-.97-.25L18.876 12h1.031ZM16.5 12V4.99h1V12h-1Z"/><path fill="#A56953" d="M16 5.99c0 .55.45 1 1 1s1-.45 1-1V3c0-.55-.45-1-1-1s-1 .45-1 1v2.99ZM20.03 5.77c-.14.53.18 1.08.71 1.22.53.14 1.08-.18 1.22-.71l.82-3.02c.14-.53-.18-1.08-.71-1.22-.53-.14-1.08.18-1.22.71l-.82 3.02Z"/><path fill="#FFB02E" d="M15.39 12.23c0-.81.66-1.46 1.46-1.46.8 0 1.45.65 1.45 1.46h-2.91ZM9.59 12.96c0-1.07.87-1.94 1.94-1.94 1.08 0 1.95.87 1.95 1.94H9.59Z"/></svg>
